X: 93
T:Le Tiu tiu de la Mama
M:2/4
L:1/8
C:Traditional
R:Polka
Z:Steve Mansfield
K:G
DG G>B | Bd dd/d/ | c/B/A/B/ cA/c/ | B/A/G/A/ BG | DG G>B | Bd dd/d/ | 
c/B/A/B/ cA/G/ | F/G/A/F/ G2 :: ggff | ee dd/d/ | c/B/A/B/ cA/c/ | 
B/A/G/A/ BG | gg ff | ee dd/d/ | c/B/A/B/ cA/G/ | F/G/A/F/ G2 :|

